PortableApps/LibreOfficePortable/App/libreoffice/help/media/icon-themes/cmd/lc_dataconsolidate.svg

<svg viewBox="0 0 24 24" xmlns="http://www.w3.org/2000/svg"><path d="m2 3v5h7v-5zm1 1h5v3h-5zm-1 6v5h7v-5zm1 1h5v3h-5zm-1 6v5h7v-5zm1 1h5v3h-5z" fill="#808080"/><path d="m3 4v3h5v-3zm0 7v3h5v-3zm13 0v3h5v-3zm-13 7v3h5v-3z" fill="#fff"/><path d="m15 10v5h7v-5zm1 1h5v3h-5z" fill="#e68497"/><path d="m10.5 5c-.277 0-.5.223-.5.5s.223.5.5.5h1.5v13h-1.5c-.277 0-.5.223-.5.5s.223.5.5.5h2c.06925 0 .135453-.013828.195312-.039062.179579-.075704.304688-.253188.304688-.460938v-14c0-.277-.223-.5-.5-.5z" fill="#4d82b8"/></svg>

<svg viewBox="0 0 24 24" xmlns="http://www.w3.org/2000/svg">
  <path
     style="fill:#808080"
     d="M 2,3 V 8 H 9 V 3 Z M 3,4 H 8 V 7 H 3 Z m -1,6 v 5 h 7 v -5 z m 1,1 h 5 v 3 H 3 Z m -1,6 v 5 h 7 v -5 z m 1,1 h 5 v 3 H 3 Z"
     />
  <path
     style="fill:#ffffff"
     d="M 3 4 L 3 7 L 8 7 L 8 4 L 3 4 z M 3 11 L 3 14 L 8 14 L 8 11 L 3 11 z M 16 11 L 16 14 L 21 14 L 21 11 L 16 11 z M 3 18 L 3 21 L 8 21 L 8 18 L 3 18 z "
     />
  <path
     style="fill:#e68497"
     d="M 15 10 L 15 15 L 22 15 L 22 10 L 15 10 z M 16 11 L 21 11 L 21 14 L 16 14 L 16 11 z "
     />
  <path
     style="fill:#4d82b8"
     d="M 10.5 5 C 10.223 5 10 5.223 10 5.5 C 10 5.777 10.223 6 10.5 6 L 12 6 L 12 19 L 10.5 19 C 10.223 19 10 19.223 10 19.5 C 10 19.777 10.223 20 10.5 20 L 12.5 20 C 12.56925 20 12.635453 19.986172 12.695312 19.960938 C 12.874891 19.885234 13 19.70775 13 19.5 L 13 5.5 C 13 5.223 12.777 5 12.5 5 L 10.5 5 z "
     />
</svg>
